!!!!SEGMENT: pl-kk--kk-i-387--011_anonim--benedic-anima-mea.krn
!!!cenid: 18xx:1425
!!!COM: Anonim
!!!COM-rismid: pe30004985
!!!CDT:
!!!CNT:
!!!OTL: Benedic anima mea
!!!PDT:
!!!AGN: Sacred
!!!SMS-siglum: PL-Kk
!!!SMS-shelfmark: Kk.I.387
!!!SMS-shelfwork: 011 W
!!!SMS-variant:
!!!SMS-altvar:
!!!NIFC-rismid: 1001139147
!!!URL-scan: http://repozytorium.nifc.pl/skany/pl-kk-nut--i-387
!!!ONB-nifc:
**kern	**text	**kern	**text	**kern	**text	**kern	**text
*part4	*part4	*part3	*part3	*part2	*part2	*part1	*part1
*staff4	*staff4	*staff3	*staff3	*staff2	*staff2	*staff1	*staff1
*Iempty	*	*Itenor	*	*Ialto	*	*Isoprn	*
*I"Baſso.	*	*I"Tenore.	*	*I"Alto.	*	*I"Soprano.	*
*I'B	*	*I'T	*	*I'A	*	*I'S	*
*clefF4	*	*clefC4	*	*clefC3	*	*clefC1	*
*k[]	*	*k[]	*	*k[]	*	*k[]	*
*C:	*	*C:	*	*C:	*	*C:	*
*M4/4	*	*M4/4	*	*M4/4	*	*M4/4	*
*met(C.)	*	*met(C.)	*	*met(C.)	*	*met(C.)	*
*2\right	*	*2\right	*	*2\right	*	*2\right	*
!LO:TX:t=P:problem:all\right:global	!	!LO:TX:t=P:problem:all\right:global	!	!LO:TX:t=P:problem:all\right:global	!	!LO:TX:t=P:problem:all\right:global	!
!LO:TX:i:a:t=Offertorium.	!	!LO:TX:i:a:t=Offertorium.	!	!LO:TX:i:a:t=Offertorium	!	!LO:TX:i:a:t=Offertorium	!
!LO:TX:i:a:t=No 11	!	!LO:TX:i:a:t=No 11.	!	!LO:TX:i:a:t=No 11.	!	!LO:TX:i:a:t=No 11.	!
!LO:TX:a:t=P:problem: napis "Baſso." nad pięciolinią	!	!LO:TX:a:t=P:problem: napis "Tenore." nad pięciolinią	!	!LO:TX:a:t=P:problem: napis "Alto." nad pięciolinią	!	!LO:TX:a:t=P:problem: napis "Soprano." nad pięciolinią	!
!LO:TX:a:t=P:problem: napis "No 11" przed kluczem	!	!LO:TX:a:t=P:problem: napis "No 11." przed kluczem	!	!LO:TX:a:t=P:problem: napis "No 11." przed kluczem	!	!LO:TX:a:t=P:problem: napis "No 11." przed kluczem	!
4G\	Be-	4G/	Be-	4g\	Be-	(>4g\	Be-
=1	=1	=1	=1	=1	=1	=1	=1
4C/	.	2G/	.	(>4e\	.	2cc\)	.
8E\L	.	.	.	4g\)	.	.	.
8F\J	.	.	.	.	.	.	.
4G\	-ne-	4B\	-ne-	4g\	-ne-	4dd\	-ne-
4G\	-dic	4B\	-dic	4g\	-dic	4dd\	-dic
=2	=2	=2	=2	=2	=2	=2	=2
4c\	A-	2c\	A-	4g\	A-	2ee\	A-
8E\L	-ni-	.	.	4g\	-ni-	.	.
8F\J	.	.	.	.	.	.	.
4G\	-ma	4B\	-ni-	4g\	-ma,	4dd\	-ni-
4r	.	8B\L	-ma	4r	.	8dd\L	-ma
.	.	8c\J	.	.	.	8ee\J	.
=3	=3	=3	=3	=3	=3	=3	=3
4r	.	2.d\	me-	4r	.	2.ff\	me-
8G\L	me-	.	.	8b\L	A-	.	.
8A\J	.	.	.	8cc\J	.	.	.
4B\	.	.	.	4dd\	.	.	.
4c\	.	4c\	.	8ee\	-ni-	4ee\	.
.	.	.	.	8cc\	-ma	.	.
!LO:LB:g=original	!	!	!	!	!	!	!
=4	=4	=4	=4	=4	=4	=4	=4
2G\	-a,	2B\	-a,	4g\	me-	2dd\	-a,
.	.	.	.	4g\	-a,	.	.
4r	.	4r	.	4r	.	4r	.
(>4G\	A-	(>4B\	A-	4b\	A-	[>4dd\	A-
!	!	!LO:LB:g=original	!	!LO:LB:g=original	!	!	!
=5	=5	=5	=5	=5	=5	=5	=5
2F#X\)	.	2c\)	.	2a\	.	2dd\]	.
4F#\	-ni-	4c\	-ni-	4a\	-ni-	4dd\	-ni-
4F#\	-ma	4c\	-ma	4a\	-ma	4dd\	-ma
!	!	!	!	!	!	!LO:LB:g=original	!
=6	=6	=6	=6	=6	=6	=6	=6
4G\	me-	4B\	me-	4g\	me-	8dd\L	me-
.	.	.	.	.	.	8gg\J	.
4C/	-a	4c\	-a	4g\	-a	8ff#X\L	-a
.	.	.	.	.	.	8ee\J	.
4D/	Do-	4B\	Do-	4g\	Do-	4dd\	Do-
4D/	-mi-	4A\	-mi-	4f#X\	-mi-	4dd\	-mi-
=7	=7	=7	=7	=7	=7	=7	=7
2GG/	-num,	2B\	-num,	2g\	-num,	2b\	-num,
4r	.	4r	.	4r	.	4r	.
4G\	Be-	[>4d\	Be-	4g\	Be-	4dd\	Be-
=8	=8	=8	=8	=8	=8	=8	=8
4G\	.	2d\]	.	4b\	.	2ff\	.
8A\L	.	.	.	8cc\L	.	.	.
8B\J	.	.	.	8dd\J	.	.	.
4c\	-ne-	4c\	-ne-	4ee\	-ne-	4ee\	-ne-
4C/	-dic	4c\	-dic	4g\	-dic	4ee\	-dic
!LO:LB:g=original	!	!	!	!	!	!	!
=9	=9	=9	=9	=9	=9	=9	=9
4E\	No-	2B\	No-	4g#X\	No-	2dd\	No-
8F#X\L	.	.	.	8a\L	.	.	.
8G#X\J	.	.	.	8b\J	.	.	.
4A\	.	4A\	.	4cc\	.	4cc\	.
4Gn\	-men	4A\	-men	4a\	-men	4cc#X\	-men
!	!	!LO:LB:g=original	!	!LO:LB:g=original	!	!	!
=10	=10	=10	=10	=10	=10	=10	=10
2F\	San-	2A\	San-	2a\	San-	2dd\	San-
2C#X/	-ctum	2A\	-ctum	2g\	-ctum	2ee\	-ctum
=11	=11	=11	=11	=11	=11	=11	=11
4D\	e-	4A\	e-	4f\	e-	4ff\	e-
4D\	-jus	4A\	-jus,	4f\	-jus,	4ff\	-jus,
!	!	!	!	!	!	!LO:LB:g=original	!
4r	.	4r	.	4r	.	4r	.
8F\	No-	8A\	No-	8a\	No-	8dd\	No-
8F\	-men	8A\	-men	8a\	-men	8dd\	-men
=12	=12	=12	=12	=12	=12	=12	=12
2G\	e-	2B\	e-	2.g\	e-	2dd\	e-
4E\	.	4c\	.	.	.	4ee\	.
4D\	-jus	4d\	-jus,	4b\	-jus	4ff\	-jus
=13	=13	=13	=13	=13	=13	=13	=13
4C/	in	8e\L	in	4cc\	in	8gg\L	in
.	.	8f\J	.	.	.	8aa\J	.
4F\	e-	8e\L	e-	4a\	e-	8gg\L	e-
.	.	8d\J	.	.	.	8ff\J	.
2G\	-ter-	4c\	-ter-	4.g\	-ter-	4ee\	-ter-
.	.	4B\	.	.	.	4dd\	.
.	.	.	.	8f\	.	.	.
!LO:LB:g=original	!	!	!	!	!	!	!
=14	=14	=14	=14	=14	=14	=14	=14
2C/	-num,	2c\	-num,	2e\	-num,	2cc\	-num,
!	!	!LO:LB:g=original	!	!	!	!	!
4r	.	4r	.	4r	.	4r	.
8e\	qu-	8e\	qu-	8ee\	qu-	8ee\	qu-
8d\	-ia	8d\	-ia	8dd\	-ia	8dd\	-ia
!	!	!	!	!LO:LB:g=original	!	!	!
=15	=15	=15	=15	=15	=15	=15	=15
4.c\	om-	4.c\	om-	(>4.cc\	om-	4.cc\	om-
8B\	.	8B\	.	8b\)	.	8b\	.
8A\L	.	8A/L	.	8a\L	.	8a/L	.
8G\	.	8G/	.	8g\	.	8g/	.
8F#X\	.	8F#X/	.	8f#X\	.	8f#X/	.
8E\J	.	8E/J	.	8e\J	.	8e/J	.
!	!	!	!	!	!	!LO:LB:g=original	!
=16	=16	=16	=16	=16	=16	=16	=16
4.D\	.	4.D/	.	(>4.d\	.	4.d/	.
8E\	.	8E/	.	8e\)	.	8e/	.
8F#X\L	-ni-	8F#X/L	-ni-	8f#X\L	-ni-	8f#X/L	-ni-
8G\	.	8G/J	.	8g\J	.	8g/J	.
8A\	-a	8A\L	-a	8a\L	-a,	8a\L	-a,
8B\J	.	8B\J	.	8b\J	.	8b\J	.
=17	=17	=17	=17	=17	=17	=17	=17
4.c\	que	4.c\	que	(>4.cc\	que	4.cc\	que
8B\	.	8B\	.	8b\)	.	8b\	.
8A\L	sunt	8A/L	sunt	8a\L	sunt	8a\L	sunt
8G\	.	8G/J	.	8g\J	.	8g\J	.
8F#X\	in	8F#X/L	in	8f#X\L	in	8f#X/L	in
8E\J	.	8E/J	.	8e\J	.	8e/J	.
!LO:LB:g=original	!	!LO:LB:g=original	!	!	!	!	!
=18	=18	=18	=18	=18	=18	=18	=18
4D\	Cel-	4D/	Cel-	4d\	Cel-	4d/	Cel-
4D\	-lo,	4D/	-lo	4d\	-lo	4d/	-lo,
!	!	!	!	!LO:LB:g=original	!	!	!
4r	.	4r	.	4r	.	4r	.
4d\	in	4d\	in	4dd\	in	4ff#X\	in
=19	=19	=19	=19	=19	=19	=19	=19
2d\	Cel-	2d\	Cel-	2dd\	Cel-	2ff#X\	Cel-
2c\	-lo	2d\	-lo	2dd\	-lo	2ff#\	-lo
=20	=20	=20	=20	=20	=20	=20	=20
2B\	Cel-	2d\	Cel-	2dd\	Cel-	2gg\	Cel-
!	!	!	!	!	!	!LO:LB:g=original	!
4E\	-lo	4B\	-lo	4g\	-lo	4b\	-lo
8E\	et	8B\	et	8g\	et	8cc\	et
8E\	in	8B\	in	8g\	in	8dd\	in
=21	=21	=21	=21	=21	=21	=21	=21
2C/	ter-	1A	Ter-	2g\	Ter-	2ee\	Ter-
2D/	.	.	.	2f#X\	.	2dd\	.
=22	=22	=22	=22	=22	=22	=22	=22
2GG/	-ra,	2G/	-ra,	2g\	-ra,	2g\	-ra,
4r	.	4r	.	4r	.	4r	.
4G\	om-	[>4G/	om-	(>4d\	om-	(>4b\	om-
!LO:LB:g=original	!	!	!	!	!	!	!
=23	=23	=23	=23	=23	=23	=23	=23
4C/	.	4G/]	.	4e\)	.	4cc\)	.
8GG/	-ni-	8G/	-ni-	8d\	-ni-	8b\	-ni-
8GG/	-a	8G/	-a	8d\	-a	8b\	-a
!	!	!LO:LB:g=original	!	!LO:LB:g=original	!	!	!
4C/	que	4G/	que	4e\	que	4cc\	que
8AA/	sunt	8A/	sunt	8e\	sunt	8cc#X\	sunt
8AA/	in	8A/	in	8e\	in	8cc#\	in
=24	=24	=24	=24	=24	=24	=24	=24
4D\	Cel-	4A\	Cel-	4f\	Cel-	4dd\	Cel-
4D\	-lo	4A\	-lo,	4f\	-lo	4dd\	-lo,
4r	.	4r	.	4r	.	4r	.
4AA/	in	4A\	in	4e\	in	4cc#X\	in
!	!	!	!	!	!	!LO:LB:g=original	!
=25	=25	=25	=25	=25	=25	=25	=25
4D/	Cel-	4A\	Cel-	4f\	Cel-	4dd\	Cel-
4AA/	-lo	4A\	-lo	4e\	-lo	4cc#X\	-lo
4D/	et	4A\	et	4f\	et	4dd\	et
4BB/	in	4B\	in	4f#X\	in	4dd#X\	in
=26	=26	=26	=26	=26	=26	=26	=26
4E\	ter-	4B\	Ter-	4g#X\	ter-	4ee\	Ter-
4E\	-ra,	4B\	-ra,	4g#\	-ra,	4ee\	-ra,
4r	.	4r	.	4r	.	4r	.
4E\	in	4B\	in	4g#\	in	4ee\	in
!LO:LB:g=original	!	!	!	!	!	!	!
=27	=27	=27	=27	=27	=27	=27	=27
4C/	Cel-	4c\	Cel-	4gn\	Cel-	4ee\	Cel-
4C/	-lo	4c\	-lo	4g\	-lo	4ee\	-lo
!	!	!LO:LB:g=original	!	!	!	!	!
4B-X\	et	4c\	et	4cc\	et	4ee\	et
4B-\	in	4c\	in	4cc\	in	8dd\L	in
.	.	.	.	.	.	8ee\J	.
!	!	!	!	!LO:LB:g=original	!	!	!
=28	=28	=28	=28	=28	=28	=28	=28
4A\	ter-	4c\	Ter-	4cc\	ter-	4ff\	Ter-
4A\	-ra	4c\	-ra,	4cc\	-ra	4ff\	-ra,
4r	.	4r	.	4r	.	4r	.
(>4A-X\	fac-	(>4e-X\	fac-	[>4cc\	fac-	4ff#X\	fac-
=29	=29	=29	=29	=29	=29	=29	=29
4G\)	.	4en\)	.	4cc\]	.	4gg\	-ta
4G\	-ta	8c\L	-ta	4g\	-ta	8ee\L	.
.	.	8d\J	.	.	.	8ffn\J	.
!	!	!	!	!	!	!LO:LB:g=original	!
4G\	sunt	4e\	sunt	4g\	sunt	4gg\	sunt
4G\	a	8G\L	a	8e\L	a	8cc\L	a
.	.	8B\J	.	8f\J	.	8dd\J	.
=30	=30	=30	=30	=30	=30	=30	=30
2G\	Do-	2c\	Do-	2g\	Do-	2ee\	Do-
2GG/	-mi-	2B\	-mi-	2f\	-mi-	2dd\	-mi-
=31	=31	=31	=31	=31	=31	=31	=31
2C/	-no	2c\	-no,	2e\	-no,	2cc\	-no,
4r	.	4r	.	4r	.	4r	.
4G\	om-	[>4G/	om-	(>4d\	om-	(>4b\	om-
!LO:LB:g=original	!	!LO:LB:g=original	!	!	!	!	!
=32	=32	=32	=32	=32	=32	=32	=32
4C/	.	4G/]	.	4e\)	.	4cc\)	.
8GG/	-ni-	8G/	-ni-	8d\	-ni-	8b\	-ni-
8GG/	-a	8G/	-a	8d\	-a	8b\	-a
4C/	que	4G/	que	4e\	que	4cc\	que
!LO:TX:t=P:problem:8GG poprawione na 8AA	!	!	!	!	!	!	!
8AA/	sunt	8A\	sunt	8e\	sunt	8cc#X\	sunt
!LO:TX:t=P:problem:8GG poprawione na 8AA	!	!	!	!	!	!	!
8AA/	in	8A\	in	8e\	in	8cc#\	in
!	!	!	!	!LO:LB:g=original	!	!	!
=33	=33	=33	=33	=33	=33	=33	=33
4D\	Cel-	4A\	Cel-	4f\	Cel-	4dd\	Cel-
4D\	-lo,	4A\	-lo	4f\	-lo,	4dd\	-lo,
4r	.	4r	.	4r	.	4r	.
4AA/	in	4A\	in	4e\	in	4cc#X\	in
!	!	!	!	!	!	!LO:LB:g=original	!
=34	=34	=34	=34	=34	=34	=34	=34
4D/	Cel-	4A\	Cel-	4f\	Cel-	4dd\	Cel-
4AA/	-lo	4A\	-lo	4e\	-lo	4cc#X\	-lo
4D/	et	4A\	et	4f\	et	4dd\	et
4BB/	in	4B\	in	4f#X\	in	4dd#X\	in
=35	=35	=35	=35	=35	=35	=35	=35
4E\	ter-	4B\	Ter-	4g#X\	ter-	4ee\	Ter-
4E\	-ra,	4B\	-ra	4g#\	-ra	4ee\	-ra
4r	.	4r	.	4r	.	4r	.
4E\	in	4B\	in	4g#\	in	4ee\	in
!	!	!LO:LB:g=original	!	!	!	!	!
=36	=36	=36	=36	=36	=36	=36	=36
2C/	Cel-	2c\	Cel-	4gn\	Cel-	2ee\	Cel-
.	.	.	.	4g\	-lo	.	.
!LO:LB:g=original	!	!	!	!	!	!	!
4B-X\	-lo	4c\	-lo	4cc\	et	4ee\	-lo
8B-\	et	8c\	et	4cc\	in	8dd\	et
8B-\	in	8c\	in	.	.	8ee\	in
=37	=37	=37	=37	=37	=37	=37	=37
4A\	ter-	4c\	ter-	4cc\	ter-	4ff\	Ter-
4A\	-ra,	4c\	-ra	4cc\	-ra	4ff\	-ra,
!	!	!	!	!LO:LB:g=original	!	!	!
4r	.	4r	.	4r	.	4r	.
4A-X\	fac-	(>4e-X\	fac-	4cc\	fac-	4ff#X\	fac-
=38	=38	=38	=38	=38	=38	=38	=38
4G\	.	4en\)	.	4cc\	-ta	4gg\	-ta
4G\	-ta	8c\L	ta	4g\	.	8ee\L	.
.	.	8d\J	.	.	.	8ffn\J	.
!	!	!	!	!	!	!LO:LB:g=original	!
4G\	sunt	4e\	sunt	4g\	sunt	4gg\	sunt
4G\	a	8G\L	a	8e\L	a	8cc\L	a
.	.	8B\J	.	8f\J	.	8dd\J	.
=39	=39	=39	=39	=39	=39	=39	=39
2G\	Do-	2c\	Do-	2g\	Do-	2ee\	Do-
2GG/	-mi-	2B\	-mi-	2f\	-mi-	2dd\	-mi-
=40	=40	=40	=40	=40	=40	=40	=40
2C/	-no.	2c\	-no.	2e\	-no.	2cc\	-no.
2r	.	2r	.	2r	.	2r	.
==	==	==	==	==	==	==	==
*-	*-	*-	*-	*-	*-	*-	*-
!!!system-decoration: [(s1,s2,s3,s4)]
!!!RDF**kern: > = above
!!!RDF**kern: < = below
!!!EED: Mateusz Mrugas
!!!EST: 2021-01-17
!!!AIN: 1 alto 1 empty 1 soprn 1 tenor
!!!ENC: Katarzyna Serwa
!!!END: 2021-01-13
